X: 93
M: 6/8
L: 1/8
K: E
[| E2 E G2 G | B3 G3 | A2 A (GF) G | F3 z2z |
|: G/ A/ | B2 G/ A/ B2 G/ A/ | B3 G2 E | F2 F F E F | "^Repeat pp."E2 zz2 :|


